X: 1
T:The Casey's Woodpile
C:Bob Massie
H:2000
N:Written for Frank & Delores Casey of Glendale, Cape Breton Island.
M:6/8
L:1/8
Q:1/4=190     %Tempo
K:F
L:1/8
K:F
z4 AG |F2 f fgf |e2 c c2 A |BAB dcB |
A2 F F2 A |BAB dcB |A^GA c=Bc |d^cd g2 f |
ege c2 e |f2 c cdB |AcA F2 A |GAB d2 B |
AcA F2 A |G^FG ABc |def a2 c |def gfe |
f3 f2 g |a2 f fgf |ege c3 |d^cd fed |
cdc F2 A |BAB dcB |A^GA c2 c |dgg g2 f |
ege c2 g |a2 f fed |ege c3 |BAB dcB |
A^GA F3 |G^FG ABc |def a2 c |def gfe |
f3 f3 |]
% Output from ABC2Win  Version 2.1 h on 03/11/2001
